X:532
T:Reel 532
M:4/4
K:Gmaj
L:1/8
d|BdGd BdGd|BdGd BAAd|BdGd BdGd|cAFG EGG2|Bdgd Bded|BddB cBAG|Bdef gabc'|d'bac' bgg|f|gbd'b c'e'd'c'|bgac' bgef| (3ggg eg dfeg|dBAc BGG2| (3bab gb d'c'bc'|d'bc'a baaf| (3bc'd' e'c' dbc'a|bgac' bgge|
